X:49
T:Blake's March
C:Norman Blake
A:Natasha's Waltz
N:Transcribed by Mike Stangeland 
R:bluegrass
L:1/8
Q:1/4=236
M:4/4
K:G
z6 GA |: "G"BG DB, G,B, DG | "C"EC EG "G"DC B,A, | G,B, DG EF GA | "D"B2 A2 A2 GA | 
"G"BG DB, G,B, DG | "C"EC EG "G"DC B,A, | "D"G,B, DG FG AF |1 F"G"G G[BG] [B2G2] GA :|2 F"G"G GG G4 |] 
|: "G"bd' d'd' d'd' d'e | ab ba g2 gf | "C"ed ef ga ge | "G"Bd dd d2 dd | "C"de ee ef e2 | 
"G"AB BB Bd B2 | "D"GA AA AB AF | "G"FG G[BG] [B4G4] :| 

